view/adminhtml/web/images/bancontact.svg

<svg fill="none" height="24" viewBox="0 0 32 24" width="32" xmlns="http://www.w3.org/2000/svg"><path d="m4.096.5h23.808c1.9822 0 3.596 1.62098 3.596 3.62903v15.74197c0 2.008-1.6138 3.629-3.596 3.629h-23.808c-1.98224 0-3.596-1.621-3.596-3.629v-15.74197c0-2.00805 1.61376-3.62903 3.596-3.62903z" fill="#fff" stroke="#e6e6e6"/><g clip-rule="evenodd" fill-rule="evenodd"><path d="m0 2.85246c0-.52288.419071-.94675.93461-.94675h2.84631l-1.41784 1.42928h5.67138l2.83574-3.33499h6.144l-4.0986 4.54477c-.3466.38435-1.0364.69592-1.5512.69592h-10.440803c-.510088 0-.923597-.42237-.923597-.94675z" fill="#00549d" transform="translate(6.07507 10.5111)"/><path d="m0 2.84785c0-.52033.423396-.94214.922955-.94214h3.330585l-1.41785 1.42928h6.144l2.36311-3.33499h6.144l-4.1276 4.99304c-.3306.3999-1.0232.72408-1.5369.72408h-10.883981c-.518219 0-.938319-.42245-.938319-.94215z" fill="#ffd800" transform="matrix(-1 0 0 -1 25.8657 13.9056)"/></g></svg>

<svg width="32" height="24" viewBox="0 0 32 24" fill="none" xmlns="http://www.w3.org/2000/svg">
<path d="M4.096 0.5H27.904C29.8862 0.5 31.5 2.12098 31.5 4.12903V19.871C31.5 21.879 29.8862 23.5 27.904 23.5H4.096C2.11376 23.5 0.5 21.879 0.5 19.871V4.12903C0.5 2.12098 2.11376 0.5 4.096 0.5Z" fill="white" stroke="#E6E6E6"/>
<path d="M9 17C12.6164 17 14.1918 14.411 16 12H4V17H9Z" fill="url(#paint0_linear)"/>
<path d="M23 7C19.3836 7 17.8082 9.58904 16 12H28V7H23Z" fill="url(#paint1_linear)"/>
<defs>
<linearGradient id="paint0_linear" x1="6.42722" y1="14.4555" x2="15.2057" y2="11.1949" gradientUnits="userSpaceOnUse">
<stop stop-color="#005AB9"/>
<stop offset="1" stop-color="#1E3764"/>
</linearGradient>
<linearGradient id="paint1_linear" x1="16.7265" y1="12.2401" x2="26.0475" y2="9.06004" gradientUnits="userSpaceOnUse">
<stop stop-color="#FBA900"/>
<stop offset="1" stop-color="#FFD800"/>
</linearGradient>
</defs>
</svg>
